icons/unity-panel/22x22/panel/audio-volume-muted-panel.svg

<svg version="1.1" viewBox="0 0 22 22" xmlns="http://www.w3.org/2000/svg">
 <g transform="rotate(45 6.5111 13.187)" fill="#fff" opacity=".5">
  <path d="m1.4473 10.444s0.017231 1.2477 1.5078 2.7383c1.4913 1.4913 2.7344 1.5039 2.7344 1.5039l1.0078-1.0059v-6.6563l-3.5078-3.5078 0.11719 5.0684zm6.25 6.9805h1v-4.5703l3.9219 0.0918-3.9219-3.9219v-3.6758a2.999 2.999 0 0 1 2.3184 2.9219l-2e-3 0.50195h1l2e-3 -0.50195a4 4 0 0 0-3.3184-3.9414v-2.0176a5.999 5.999 0 0 1 5.3184 5.959l-2e-3 0.50195h1v-0.5a7 7 0 0 0-6.3164-6.9512v-2.2832h-1v13.793z" fill="#fff" opacity="1"/>
 </g>
</svg>

<?xml version="1.0" encoding="UTF-8" standalone="no"?>
<svg
   viewBox="0 0 22 22"
   version="1.1"
   id="svg4"
   sodipodi:docname="audio-volume-muted-panel.svg"
   inkscape:version="1.1.1 (3bf5ae0d25, 2021-09-20)"
   xmlns:inkscape="http://www.inkscape.org/namespaces/inkscape"
   xmlns:sodipodi="http://sodipodi.sourceforge.net/DTD/sodipodi-0.dtd"
   xmlns="http://www.w3.org/2000/svg"
   xmlns:svg="http://www.w3.org/2000/svg">
  <defs
     id="defs8" />
  <sodipodi:namedview
     id="namedview6"
     pagecolor="#ffffff"
     bordercolor="#666666"
     borderopacity="1.0"
     inkscape:pageshadow="2"
     inkscape:pageopacity="0.0"
     inkscape:pagecheckerboard="0"
     showgrid="false"
     inkscape:zoom="12.090909"
     inkscape:cx="11.041353"
     inkscape:cy="11"
     inkscape:window-width="1852"
     inkscape:window-height="1043"
     inkscape:window-x="1434"
     inkscape:window-y="0"
     inkscape:window-maximized="1"
     inkscape:current-layer="svg4" />
  <g
     transform="rotate(45,6.5111071,13.187065)"
     fill="#808080"
     id="g4"
     style="opacity:0.5;fill:#ffffff;fill-opacity:1">
    <path
       d="m 1.4473,10.444 c 0,0 0.017231,1.2477 1.5078,2.7383 1.4913,1.4913 2.7344,1.5039 2.7344,1.5039 L 6.6973,13.6803 V 7.024 L 3.1895,3.5162 3.30669,8.5846 Z m 6.25,6.9805 h 1 V 12.8542 L 12.6192,12.946 8.6973,9.0241 V 5.3483 a 2.999,2.999 0 0 1 2.3184,2.9219 l -0.002,0.50195 h 1 L 12.0157,8.2702 A 4,4 0 0 0 8.6973,4.3288 V 2.3112 a 5.999,5.999 0 0 1 5.3184,5.959 l -0.002,0.50195 h 1 v -0.5 A 7,7 0 0 0 8.6973,1.32095 v -2.2832 h -1 v 13.793 z"
       fill="#808080"
       opacity="0.5"
       id="path2-3"
       style="opacity:1;fill:#ffffff;fill-opacity:1" />
  </g>
</svg>
